img/avatar-6.svg

<svg xmlns="http://www.w3.org/2000/svg" preserveAspectRatio="xMidYMid" width="37.313" height="37.32"><circle cx="18.656" cy="18.66" r="18.656" fill="#0388ef"/><path d="M28.326 23.258h-1.568v-.954c-.019-.672-.24-1.283-.626-1.785-.274-.371-.626-.68-1.028-.885-.436-.235-.931-.363-1.456-.363-1.627 0-2.971 1.26-3.099 2.859v1.434h-4.47v-1.399c-.05-.595-.27-1.132-.602-1.584-.275-.371-.623-.676-1.04-.885-.428-.232-.923-.363-1.452-.363-1.696 0-3.079 1.364-3.107 3.06v.089h-.015v.95H7.622c.074-.185.124-.402.124-.634 0-.336-.108-.656-.286-.923h.668v-4.451l4.687-.367 2.318-4.215 12.571.093.027 8.751h.495c-.054.201-.085.409-.085.637 0 .34.069.668.185.935zm-8.886-9.114l-3.689-.104-1.804 3.091h4.578l.915.927v-3.914zm-6.498 5.502c.468 0 .908.112 1.294.313.371.197.688.467.939.807.344.456.553 1.032.553 1.658 0 1.541-1.244 2.797-2.786 2.797-1.537 0-2.789-1.256-2.789-2.797 0-.012 0-.031.007-.043.024-1.514 1.256-2.735 2.782-2.735zm-1.723 2.847c0 .951.777 1.723 1.727 1.723.951 0 1.731-.772 1.731-1.723 0-.386-.136-.742-.344-1.035-.155-.205-.352-.371-.58-.491-.239-.131-.513-.197-.807-.197-.943 0-1.711.75-1.727 1.696v.027zm12.383-2.758c.471 0 .915.112 1.305.32.367.19.68.464.927.796.356.472.553 1.039.553 1.665 0 1.542-1.24 2.79-2.785 2.79-1.53 0-2.782-1.248-2.782-2.79v-.042c.023-1.518 1.263-2.739 2.782-2.739zm-1.716 2.847c0 .962.773 1.727 1.719 1.727.966 0 1.739-.765 1.739-1.727 0-.386-.136-.746-.352-1.035-.15-.197-.344-.375-.576-.491-.239-.131-.513-.201-.811-.201-.938 0-1.7.757-1.719 1.704v.023z" fill="#fff" fill-rule="evenodd"/></svg>

<svg xmlns="http://www.w3.org/2000/svg" xmlns:xlink="http://www.w3.org/1999/xlink" preserveAspectRatio="xMidYMid" width="37.313" height="37.32" viewBox="0 0 37.313 37.32">
  <defs>
    <style>
      .cls-1 {
        fill: #0388ef;
      }

      .cls-2 {
        fill: #fff;
        fill-rule: evenodd;
      }
    </style>
  </defs>
  <g>
    <circle cx="18.656" cy="18.66" r="18.656" class="cls-1"/>
    <path d="M28.326,23.258 L26.758,23.258 L26.758,22.304 C26.739,21.632 26.518,21.021 26.132,20.519 C25.858,20.148 25.506,19.839 25.104,19.634 C24.668,19.399 24.173,19.271 23.648,19.271 C22.021,19.271 20.677,20.531 20.549,22.130 L20.549,23.564 L16.079,23.564 L16.079,22.165 C16.029,21.570 15.809,21.033 15.477,20.581 C15.202,20.210 14.854,19.905 14.437,19.696 C14.009,19.464 13.514,19.333 12.985,19.333 C11.289,19.333 9.906,20.697 9.878,22.393 C9.878,22.408 9.878,22.424 9.878,22.447 C9.878,22.459 9.878,22.466 9.878,22.482 L9.863,22.482 L9.863,23.432 L7.622,23.432 C7.696,23.247 7.746,23.030 7.746,22.798 C7.746,22.462 7.638,22.142 7.460,21.875 L8.128,21.875 L8.128,17.424 L12.815,17.057 L15.133,12.842 L27.704,12.935 L27.731,21.686 L28.226,21.686 C28.172,21.887 28.141,22.095 28.141,22.323 C28.141,22.663 28.210,22.991 28.326,23.258 ZM19.440,14.144 L15.751,14.040 L13.947,17.131 L15.002,17.131 L18.525,17.131 L19.440,18.058 L19.440,14.144 ZM12.942,19.646 C13.410,19.646 13.850,19.758 14.236,19.959 C14.607,20.156 14.924,20.426 15.175,20.766 C15.519,21.222 15.728,21.798 15.728,22.424 C15.728,23.965 14.484,25.221 12.942,25.221 C11.405,25.221 10.153,23.965 10.153,22.424 C10.153,22.412 10.153,22.393 10.160,22.381 C10.184,20.867 11.416,19.646 12.942,19.646 ZM11.219,22.493 C11.219,23.444 11.996,24.216 12.946,24.216 C13.897,24.216 14.677,23.444 14.677,22.493 C14.677,22.107 14.541,21.751 14.333,21.458 C14.178,21.253 13.981,21.087 13.753,20.967 C13.514,20.836 13.240,20.770 12.946,20.770 C12.003,20.770 11.235,21.520 11.219,22.466 C11.219,22.478 11.219,22.485 11.219,22.493 ZM23.602,19.735 C24.073,19.735 24.517,19.847 24.907,20.055 C25.274,20.245 25.587,20.519 25.834,20.851 C26.190,21.323 26.387,21.890 26.387,22.516 C26.387,24.058 25.147,25.306 23.602,25.306 C22.072,25.306 20.820,24.058 20.820,22.516 C20.820,22.501 20.820,22.485 20.820,22.474 C20.843,20.956 22.083,19.735 23.602,19.735 ZM21.886,22.582 C21.886,23.544 22.659,24.309 23.605,24.309 C24.571,24.309 25.344,23.544 25.344,22.582 C25.344,22.196 25.208,21.836 24.992,21.547 C24.842,21.350 24.648,21.172 24.416,21.056 C24.177,20.925 23.903,20.855 23.605,20.855 C22.667,20.855 21.905,21.612 21.886,22.559 C21.886,22.567 21.886,22.578 21.886,22.582 Z" class="cls-2"/>
  </g>
</svg>
